X: 13728
T: Forde's
R: polka
M: 2/4
K: Dmajor
F/G/|:AD FA|dc AB|=c>B cG|EF GF/G/|
AD FA|dc AB|=c>B cG|1 ED DF/G/:|2 ED D2||
fd ed|cA Ad/e/|fd ef|gf/g/ ag|
fd e>d|cA AB|c/B/A GE|1 D2 D>e:|2 D2 DF/G/||

